;FLAVOR:Marlin
;TIME:1865
;Filament used: 1.40753m
;Layer height: 0.1
;MINX:88.949
;MINY:86.45
;MINZ:0.1
;MAXX:111.05
;MAXY:113.55
;MAXZ:13
;Generated with Cura_SteamEngine 4.8.0
M140 S50
M105
M190 S50
M104 S245
M105
M109 S245
M82 ;absolute extrusion mode
G21 ;metric values
 G90 ;absolute positioning
 M82 ;set extruder to absolute mode
 M107 ;start with the fan off
 G28 X0 Y0 ;move X/Y to min endstops
 G28 Z0 ;move Z to min endstops
 G1 Z15.0 F120 ;move the platform down 15mm
 G92 E0 ;zero the extruded length
 G1 F200 E6 ;extrude 6 mm of feed stock
 G92 E0 ;zero the extruded length again
 G1 F120 
 ;Put printing message on LCD screen
 M117 Printing...
G92 E0
G92 E0
G1 F1800 E-4
;LAYER_COUNT:130
;LAYER:0
M106 S255
G0 F3600 X89.953 Y87.819 Z0.1
;TYPE:SKIRT
G1 F1800 E0.41575
G1 F2700 X90.355 Y87.422 E0.42515
G1 X90.809 Y87.085 E0.43455
G1 X91.306 Y86.816 E0.44395
G1 X91.836 Y86.62 E0.45335
G1 X92.389 Y86.5 E0.46276
G1 X93.257 Y86.45 E0.47721
G1 X106.404 Y86.45 E0.69585
G1 X107.098 Y86.46 E0.70739
G1 X107.661 Y86.508 E0.71679
G1 X108.212 Y86.635 E0.72619
G1 X108.739 Y86.839 E0.73559
G1 X109.233 Y87.115 E0.745
G1 X109.683 Y87.457 E0.7544
G1 X110.079 Y87.86 E0.7638
G1 X110.416 Y88.314 E0.7732
G1 X110.685 Y88.812 E0.78261
G1 X110.881 Y89.342 E0.79201
G1 X111 Y89.894 E0.8014
G1 X111.048 Y90.656 E0.8141
G1 X111.05 Y90.781 E0.81618
G1 X111.05 Y108.864 E1.1169
G1 X111.041 Y109.591 E1.12899
G1 X110.994 Y110.154 E1.13838
G1 X110.868 Y110.705 E1.14778
G1 X110.666 Y111.233 E1.15719
G1 X110.391 Y111.727 E1.16659
G1 X110.049 Y112.177 E1.17599
G1 X109.647 Y112.575 E1.18539
G1 X109.194 Y112.912 E1.19478
G1 X108.697 Y113.182 E1.20419
G1 X108.167 Y113.379 E1.21359
G1 X107.615 Y113.5 E1.22299
G1 X106.832 Y113.548 E1.23604
G1 X106.72 Y113.55 E1.2379
G1 X93.605 Y113.55 E1.456
G1 X92.907 Y113.541 E1.46761
G1 X92.344 Y113.493 E1.47701
G1 X91.793 Y113.367 E1.48641
G1 X91.265 Y113.165 E1.49581
G1 X90.771 Y112.89 E1.50521
G1 X90.321 Y112.548 E1.51461
G1 X89.923 Y112.146 E1.52402
G1 X89.587 Y111.692 E1.53341
G1 X89.317 Y111.195 E1.54282
G1 X89.12 Y110.665 E1.55222
G1 X89 Y110.113 E1.56162
G1 X88.951 Y109.285 E1.57541
G1 X88.949 Y91.073 E1.87828
G1 X88.958 Y90.405 E1.88939
G1 X89.006 Y89.842 E1.89878
G1 X89.132 Y89.291 E1.90818
G1 X89.335 Y88.763 E1.91759
G1 X89.611 Y88.269 E1.927
G1 X89.953 Y87.819 E1.9364
G0 F3600 X90.346 Y87.981
G1 F2700 X90.743 Y87.621 E1.94531
G1 X91.189 Y87.323 E1.95423
G1 X91.675 Y87.095 E1.96316
G1 X92.189 Y86.942 E1.97208
G1 X92.868 Y86.86 E1.98345
G1 X93.357 Y86.849 E1.99159
G1 X106.398 Y86.85 E2.20846
G1 X107.092 Y86.86 E2.22
G1 X107.626 Y86.908 E2.22892
G1 X108.147 Y87.034 E2.23783
G1 X108.644 Y87.237 E2.24676
G1 X109.105 Y87.511 E2.25568
G1 X109.52 Y87.85 E2.26459
G1 X109.88 Y88.248 E2.27351
G1 X110.177 Y88.694 E2.28242
G1 X110.405 Y89.18 E2.29135
G1 X110.558 Y89.694 E2.30027
G1 X110.638 Y90.348 E2.31123
G1 X110.65 Y90.781 E2.31843
G1 X110.65 Y108.859 E2.61907
G1 X110.641 Y109.586 E2.63116
G1 X110.594 Y110.12 E2.64008
G1 X110.469 Y110.641 E2.64899
G1 X110.267 Y111.138 E2.65791
G1 X109.994 Y111.6 E2.66683
G1 X109.656 Y112.016 E2.67575
G1 X109.259 Y112.377 E2.68467
G1 X108.813 Y112.675 E2.69359
G1 X108.328 Y112.903 E2.7025
G1 X107.814 Y113.057 E2.71143
G1 X107.142 Y113.14 E2.72269
G1 X106.72 Y113.15 E2.72971
G1 X93.611 Y113.15 E2.94771
G1 X92.913 Y113.141 E2.95932
G1 X92.378 Y113.094 E2.96825
G1 X91.857 Y112.968 E2.97716
G1 X91.36 Y112.766 E2.98608
G1 X90.899 Y112.493 E2.99499
G1 X90.483 Y112.154 E3.00392
G1 X90.122 Y111.758 E3.01283
G1 X89.824 Y111.312 E3.02175
G1 X89.596 Y110.826 E3.03068
G1 X89.443 Y110.312 E3.0396
G1 X89.36 Y109.632 E3.05099
G1 X89.35 Y109.184 E3.05844
G1 X89.349 Y91.079 E3.35953
G1 X89.358 Y90.411 E3.37064
G1 X89.405 Y89.876 E3.37957
G1 X89.531 Y89.355 E3.38848
G1 X89.733 Y88.858 E3.39741
G1 X90.007 Y88.397 E3.40632
G1 X90.346 Y87.981 E3.41525
G0 F3600 X90.403 Y88.532
G1 F2700 X90.738 Y88.154 E3.42365
G1 X91.129 Y87.833 E3.43206
G1 X91.565 Y87.578 E3.44046
G1 X92.037 Y87.395 E3.44888
G1 X92.531 Y87.288 E3.45728
G1 X93.277 Y87.25 E3.46971
G1 X106.392 Y87.25 E3.68781
G1 X107.086 Y87.26 E3.69935
G1 X107.589 Y87.308 E3.70776
G1 X108.079 Y87.433 E3.71617
G1 X108.543 Y87.635 E3.72458
G1 X108.969 Y87.907 E3.73299
G1 X109.347 Y88.242 E3.74139
G1 X109.668 Y88.633 E3.7498
G1 X109.922 Y89.07 E3.7582
G1 X110.105 Y89.541 E3.76661
G1 X110.212 Y90.036 E3.77503
G1 X110.248 Y90.681 E3.78577
G1 X110.25 Y90.781 E3.78744
G1 X110.25 Y108.854 E4.08799
G1 X110.241 Y109.581 E4.10008
G1 X110.195 Y110.084 E4.10848
G1 X110.07 Y110.574 E4.11689
G1 X109.869 Y111.038 E4.1253
G1 X109.598 Y111.465 E4.13371
G1 X109.263 Y111.844 E4.14212
G1 X108.873 Y112.165 E4.15052
G1 X108.437 Y112.421 E4.15893
G1 X107.966 Y112.604 E4.16734
G1 X107.472 Y112.712 E4.17574
G1 X106.81 Y112.749 E4.18677
G1 X93.616 Y112.75 E4.40619
G1 X92.918 Y112.741 E4.4178
G1 X92.414 Y112.694 E4.42621
G1 X91.924 Y112.569 E4.43462
G1 X91.46 Y112.368 E4.44303
G1 X91.034 Y112.097 E4.45143
G1 X90.655 Y111.762 E4.45984
G1 X90.334 Y111.371 E4.46825
G1 X90.079 Y110.935 E4.47665
G1 X89.895 Y110.464 E4.48506
G1 X89.788 Y109.97 E4.49347
G1 X89.751 Y109.265 E4.50521
G1 X89.749 Y91.084 E4.80756
G1 X89.758 Y90.416 E4.81867
G1 X89.805 Y89.912 E4.82709
G1 X89.93 Y89.423 E4.83548
G1 X90.131 Y88.959 E4.84389
G1 X90.403 Y88.532 E4.85231
G1 F1800 E0.85231
;MESH:Body1.stl
G0 F3600 X100 Y104.792
;TYPE:WALL-INNER
G1 F1800 E5.26806
G1 X104.15 Y102.395 E5.34776
G1 X104.15 Y97.605 E5.42742
G1 X100 Y95.208 E5.50712
G1 X95.85 Y97.605 E5.58682
G1 X95.851 Y102.394 E5.66646
G1 X100 Y104.792 E5.74616
G0 F3600 X100 Y104.33
;TYPE:WALL-OUTER
G1 F1800 X103.75 Y102.164 E5.81817
G1 X103.75 Y97.836 E5.89015
G1 X100 Y95.67 E5.96217
G1 X96.25 Y97.836 E6.03418
G1 X96.251 Y102.163 E6.10614
G1 X100 Y104.33 E6.17815
G0 F3600 X100.173 Y104.23
G0 X100.393 Y104.612
G1 F1800 E2.17815
G0 F3600 X93.549 Y91.049
;TYPE:WALL-INNER
G1 F1800 E6.59391
G1 X93.748 Y91.049 E6.59722
G1 X106.45 Y91.05 E6.80845
G1 X106.45 Y108.95 E7.10613
G1 X93.55 Y108.95 E7.32066
G1 X93.549 Y91.248 E7.61504
G1 X93.549 Y91.049 E7.61718
G0 F3600 X93.349 Y90.649
;TYPE:WALL-OUTER
G1 F1800 X106.85 Y90.65 E7.84171
G1 X106.85 Y109.35 E8.15269
G1 X93.15 Y109.35 E8.38052
G1 X93.149 Y90.849 E8.68819
G1 X93.149 Y90.649 E8.69152
G1 X93.349 Y90.649 E8.69367
G0 F3600 X93.549 Y90.649
G0 X93.59 Y91.09
G0 X93.939 Y91.439
;TYPE:SKIN
G1 F1800 X106.06 Y91.44 E8.89525
G1 X106.06 Y108.56 E9.17995
G1 X93.94 Y108.56 E9.38151
G1 X93.939 Y91.439 E9.66623
G1 F1800 E5.66623
G0 F3600 X95.46 Y97.38
G1 F1800 E10.08198
G1 X95.461 Y102.619 E10.16911
G1 X100 Y105.242 E10.25629
G1 X104.54 Y102.62 E10.34348
G1 X104.54 Y97.38 E10.43062
G1 X100 Y94.758 E10.51781
G1 X95.46 Y97.38 E10.60499
G1 F1800 E6.60499
G0 F3600 X94.236 Y108.378
G1 F1800 E11.02075
G1 X94.119 Y108.261 E11.0235
G0 F3600 X94.119 Y107.695
G1 F1800 X94.802 Y108.378 E11.03956
G0 F3600 X95.368 Y108.378
G1 F1800 X94.119 Y107.13 E11.06892
G0 F3600 X94.119 Y106.564
G1 F1800 X95.933 Y108.378 E11.11159
G0 F3600 X96.499 Y108.378
G1 F1800 X94.119 Y105.998 E11.16756
G0 F3600 X94.119 Y105.433
G1 F1800 X97.065 Y108.378 E11.23683
G0 F3600 X97.63 Y108.378
G1 F1800 X94.119 Y104.867 E11.31941
G0 F3600 X94.119 Y104.301
G1 F1800 X98.196 Y108.378 E11.41529
G0 F3600 X98.762 Y108.378
G1 F1800 X94.119 Y103.736 E11.52448
G0 F3600 X94.119 Y103.17
G1 F1800 X99.327 Y108.378 E11.64696
G0 F3600 X99.893 Y108.378
G1 F1800 X94.118 Y102.604 E11.78277
G0 F3600 X94.118 Y102.038
G1 F1800 X100.459 Y108.378 E11.93189
G0 F3600 X101.025 Y108.378
G1 F1800 X95.488 Y102.842 E12.0621
G0 F3600 X95.28 Y102.634
G1 F1800 X94.118 Y101.472 E12.08942
G0 F3600 X94.118 Y100.906
G1 F1800 X95.28 Y102.068 E12.11675
G0 F3600 X95.28 Y101.503
G1 F1800 X94.118 Y100.341 E12.14408
G0 F3600 X94.118 Y99.775
G1 F1800 X95.28 Y100.937 E12.17141
G0 F3600 X95.28 Y100.371
G1 F1800 X94.118 Y99.209 E12.19874
G0 F3600 X94.118 Y98.644
G1 F1800 X95.28 Y99.806 E12.22607
G0 F3600 X95.28 Y99.24
G1 F1800 X94.118 Y98.078 E12.2534
G0 F3600 X94.118 Y97.512
G1 F1800 X95.28 Y98.674 E12.28072
G0 F3600 X95.28 Y98.108
G1 F1800 X94.118 Y96.946 E12.30805
G0 F3600 X94.118 Y96.38
G1 F1800 X95.28 Y97.543 E12.33539
G0 F3600 X95.468 Y97.165
G1 F1800 X94.118 Y95.815 E12.36714
G0 F3600 X94.118 Y95.249
G1 F1800 X95.827 Y96.958 E12.40734
G0 F3600 X96.185 Y96.751
G1 F1800 X94.118 Y94.683 E12.45596
G0 F3600 X94.118 Y94.118
G1 F1800 X96.544 Y96.544 E12.51302
G0 F3600 X96.903 Y96.337
G1 F1800 X94.118 Y93.552 E12.57851
G0 F3600 X94.118 Y92.986
G1 F1800 X97.261 Y96.13 E12.65245
G0 F3600 X97.62 Y95.923
G1 F1800 X94.118 Y92.42 E12.73482
G0 F3600 X94.118 Y91.855
G1 F1800 X97.978 Y95.716 E12.82561
G0 F3600 X98.337 Y95.508
G1 F1800 X94.448 Y91.619 E12.91707
G0 F3600 X95.013 Y91.619
G1 F1800 X98.695 Y95.301 E13.00367
G0 F3600 X99.054 Y95.094
G1 F1800 X95.579 Y91.619 E13.0854
G0 F3600 X96.145 Y91.619
G1 F1800 X99.413 Y94.888 E13.16227
G0 F3600 X99.772 Y94.68
G1 F1800 X96.71 Y91.619 E13.23427
G0 F3600 X97.276 Y91.619
G1 F1800 X100.49 Y94.833 E13.30986
G1 X100.56 Y94.903
G1 F1800 E9.30986
G0 F3600 X101.829 Y95.607
G1 F1800 E13.72561
G1 X97.842 Y91.619 E13.81939
G0 F3600 X98.408 Y91.619
G1 F1800 X103.169 Y96.38 E13.93136
G1 X103.239 Y96.45
G1 F1800 E9.93136
G0 F3600 X104.507 Y97.153
G1 F1800 E14.34711
G1 X98.973 Y91.619 E14.47726
G0 F3600 X99.539 Y91.619
G1 F1800 X105.88 Y97.96 E14.62639
G0 F3600 X105.88 Y97.394
G1 F1800 X100.105 Y91.619 E14.76221
G0 F3600 X100.67 Y91.619
G1 F1800 X105.88 Y96.829 E14.88474
G0 F3600 X105.88 Y96.263
G1 F1800 X101.236 Y91.619 E14.99396
G0 F3600 X101.802 Y91.619
G1 F1800 X105.88 Y95.697 E15.08987
G0 F3600 X105.88 Y95.132
G1 F1800 X102.367 Y91.619 E15.17249
G0 F3600 X102.933 Y91.619
G1 F1800 X105.88 Y94.566 E15.2418
G0 F3600 X105.88 Y94
G1 F1800 X103.499 Y91.619 E15.2978
G0 F3600 X104.064 Y91.619
G1 F1800 X105.88 Y93.434 E15.3405
G0 F3600 X105.88 Y92.869
G1 F1800 X104.63 Y91.619 E15.36989
G0 F3600 X105.196 Y91.619
G1 F1800 X105.88 Y92.303 E15.38598
G0 F3600 X105.88 Y91.737
G1 F1800 X105.761 Y91.619 E15.38877
G1 F1800 E11.38877
G0 F3600 X104.718 Y97.365
G1 F1800 E15.80452
G1 X105.88 Y98.526 E15.83184
G0 F3600 X105.88 Y99.091
G1 F1800 X104.718 Y97.93 E15.85915
G0 F3600 X104.718 Y98.496
G1 F1800 X105.88 Y99.657 E15.88647
G0 F3600 X105.88 Y100.223
G1 F1800 X104.718 Y99.062 E15.91379
G0 F3600 X104.718 Y99.627
G1 F1800 X105.88 Y100.788 E15.9411
G0 F3600 X105.88 Y101.354
G1 F1800 X104.718 Y100.193 E15.96842
G0 F3600 X104.718 Y100.759
G1 F1800 X105.88 Y101.92 E15.99574
G0 F3600 X105.88 Y102.485
G1 F1800 X104.718 Y101.324 E16.02305
G0 F3600 X104.718 Y101.89
G1 F1800 X105.88 Y103.051 E16.05037
G0 F3600 X105.88 Y103.617
G1 F1800 X104.718 Y102.456 E16.07769
G0 F3600 X104.53 Y102.833
G1 F1800 X105.88 Y104.182 E16.10942
G0 F3600 X105.88 Y104.748
G1 F1800 X104.172 Y103.041 E16.14958
G0 F3600 X103.813 Y103.248
G1 F1800 X105.88 Y105.314 E16.19818
G0 F3600 X105.88 Y105.88
G1 F1800 X103.455 Y103.455 E16.25522
G0 F3600 X103.096 Y103.661
G1 F1800 X105.88 Y106.445 E16.32069
G0 F3600 X105.88 Y107.011
G1 F1800 X102.737 Y103.869 E16.3946
G0 F3600 X102.379 Y104.076
G1 F1800 X105.88 Y107.577 E16.47694
G0 F3600 X105.88 Y108.142
G1 F1800 X102.02 Y104.283 E16.56771
G0 F3600 X101.662 Y104.49
G1 F1800 X105.55 Y108.378 E16.65915
G0 F3600 X104.984 Y108.378
G1 F1800 X101.303 Y104.697 E16.74572
G0 F3600 X100.945 Y104.904
G1 F1800 X104.419 Y108.378 E16.82742
G0 F3600 X103.853 Y108.378
G1 F1800 X100.585 Y105.111 E16.90427
G0 F3600 X100.227 Y105.318
G1 F1800 X103.287 Y108.378 E16.97623
G0 F3600 X102.722 Y108.378
G1 F1800 X99.508 Y105.165 E17.05181
G1 X99.438 Y105.095
G1 F1800 E13.05181
G0 F3600 X98.168 Y104.39
G1 F1800 E17.46756
G1 X102.156 Y108.378 E17.56135
G0 F3600 X101.59 Y108.378
G1 F1800 X96.828 Y103.616 E17.67335
G1 X96.758 Y103.546
G1 F1800 E13.67335
;MESH:NONMESH
G0 F600 X96.758 Y103.546 Z0.2
G0 F3600 X95.95 Y97.662
;TIME_ELAPSED:34.135463
;LAYER:1
;TYPE:WALL-INNER
;MESH:Body1.stl
G1 F1800 E18.0891
G1 F2250 X95.951 Y102.337 E18.16685
G1 X100 Y104.676 E18.24461
G1 X104.05 Y102.338 E18.32238
G1 X104.05 Y97.662 E18.40014
G1 X100 Y95.324 E18.47791
G1 X95.95 Y97.662 E18.55568
G0 F5400 X96.35 Y97.893
;TYPE:WALL-OUTER
G1 F1950 X96.351 Y102.106 E18.62574
G1 X100 Y104.214 E18.69582
G1 X103.65 Y102.107 E18.76591
G1 X103.65 Y97.893 E18.83599
G1 X100 Y95.786 E18.90607
G1 X96.35 Y97.893 E18.97616
G0 F5400 X96.35 Y98.093
G0 X95.91 Y98.092
G1 F1800 E14.97616
G0 F5400 X93.449 Y90.949
;TYPE:WALL-INNER
G1 F1800 E19.39191
G1 F2250 X93.648 Y90.949 E19.39522
G1 X106.55 Y90.95 E19.60978
G1 X106.55 Y109.05 E19.91079
G1 X93.45 Y109.05 E20.12864
G1 X93.449 Y91.148 E20.42635
G1 X93.449 Y90.949 E20.42849
G0 F5400 X93.249 Y90.549
;TYPE:WALL-OUTER
G1 F1950 X106.95 Y90.55 E20.65634
G1 X106.95 Y109.45 E20.97065
G1 X93.05 Y109.45 E21.20181
G1 X93.049 Y90.749 E21.51281
G1 X93.049 Y90.549 E21.51613
G1 X93.249 Y90.549 E21.51829
G0 F5400 X93.449 Y90.549
G0 X93.49 Y90.99
G0 X93.839 Y91.339
;TYPE:SKIN
G1 F1800 X106.16 Y91.34 E21.72319
G1 X106.16 Y108.66 E22.01122
G1 X93.84 Y108.66 E22.2161
G1 X93.839 Y91.339 E22.50415
G1 F1800 E18.50415
G0 F5400 X95.56 Y97.437
G1 F1800 E22.9199
G1 X95.561 Y102.562 E23.00513
G1 X100 Y105.126 E23.09038
G1 X104.44 Y102.563 E23.17564
G1 X104.44 Y97.437 E23.26089
G1 X100 Y94.874 E23.34614
G1 X95.56 Y97.437 E23.4314
G1 F1800 E19.4314
G0 F5400 X94.019 Y92.091
G1 F1800 E23.84715
G1 X94.591 Y91.519 E23.8606
G0 F5400 X95.156 Y91.519
G1 F1800 X94.019 Y92.657 E23.88735
G0 F5400 X94.019 Y93.222
G1 F1800 X95.722 Y91.519 E23.92741
G0 F5400 X96.288 Y91.519
G1 F1800 X94.019 Y93.788 E23.98077
G0 F5400 X94.019 Y94.354
G1 F1800 X96.853 Y91.519 E24.04743
G0 F5400 X97.419 Y91.519
G1 F1800 X94.019 Y94.919 E24.1274
G0 F5400 X94.019 Y95.485
G1 F1800 X97.985 Y91.519 E24.22067
G0 F5400 X98.55 Y91.519
G1 F1800 X94.019 Y96.051 E24.32724
G0 F5400 X94.019 Y96.616
G1 F1800 X99.116 Y91.519 E24.44712
G0 F5400 X99.682 Y91.519
G1 F1800 X94.019 Y97.181 E24.58029
G0 F5400 X94.019 Y97.747
G1 F1800 X100.247 Y91.519 E24.72676
G0 F5400 X100.813 Y91.519
G1 F1800 X94.019 Y98.313 E24.88655
G0 F5400 X94.019 Y98.878
G1 F1800 X95.38 Y97.518 E24.91855
G0 F5400 X95.38 Y98.084
G1 F1800 X94.019 Y99.444 E24.95054
G0 F5400 X94.019 Y100.01
G1 F1800 X95.38 Y98.649 E24.98255
G0 F5400 X95.38 Y99.215
G1 F1800 X94.019 Y100.576 E25.01456
G0 F5400 X94.019 Y101.141
G1 F1800 X95.38 Y99.781 E25.04656
G0 F5400 X95.38 Y100.346
G1 F1800 X94.019 Y101.707 E25.07857
G0 F5400 X94.019 Y102.273
G1 F1800 X95.38 Y100.912 E25.11057
G0 F5400 X95.38 Y101.478
G1 F1800 X94.02 Y102.838 E25.14256
G0 F5400 X94.02 Y103.403
G1 F1800 X95.38 Y102.043 E25.17454
G0 F5400 X95.38 Y102.609
G1 F1800 X94.02 Y103.969 E25.20653
G0 F5400 X94.02 Y104.535
G1 F1800 X95.704 Y102.851 E25.24613
G0 F5400 X96.062 Y103.058
G1 F1800 X94.02 Y105.1 E25.29416
G0 F5400 X94.02 Y105.666
G1 F1800 X96.421 Y103.265 E25.35063
G0 F5400 X96.779 Y103.473
G1 F1800 X94.02 Y106.232 E25.41551
G0 F5400 X94.02 Y106.797
G1 F1800 X97.138 Y103.68 E25.48883
G0 F5400 X97.497 Y103.886
G1 F1800 X94.02 Y107.363 E25.57061
G0 F5400 X94.02 Y107.929
G1 F1800 X97.855 Y104.093 E25.66081
G0 F5400 X98.214 Y104.301
G1 F1800 X94.036 Y108.479 E25.75907
G0 F5400 X94.601 Y108.479
G1 F1800 X98.572 Y104.508 E25.85246
G0 F5400 X98.931 Y104.715
G1 F1800 X95.167 Y108.479 E25.94099
G0 F5400 X95.733 Y108.479
G1 F1800 X99.289 Y104.922 E26.02463
G0 F5400 X99.648 Y105.129
G1 F1800 X96.298 Y108.479 E26.10342
G0 F5400 X96.864 Y108.479
G1 F1800 X100.024 Y105.319 E26.17774
G1 X100.094 Y105.249
G1 F1800 E22.17774
G0 F5400 X101.362 Y104.547
G1 F1800 E26.59349
G1 X97.43 Y108.479 E26.68596
G0 F5400 X97.995 Y108.479
G1 F1800 X102.7 Y103.774 E26.79662
G1 X102.77 Y103.704
G1 F1800 E22.79662
G0 F5400 X104.037 Y103.003
G1 F1800 E27.21237
G1 X98.561 Y108.479 E27.34116
G0 F5400 X99.127 Y108.479
G1 F1800 X105.979 Y101.626 E27.50232
G0 F5400 X105.979 Y101.061
G1 F1800 X104.619 Y102.421 E27.5343
G0 F5400 X104.619 Y101.855
G1 F1800 X105.979 Y100.495 E27.56629
G0 F5400 X105.979 Y99.93
G1 F1800 X104.619 Y101.29 E27.59827
G0 F5400 X104.619 Y100.724
G1 F1800 X105.979 Y99.364 E27.63026
G0 F5400 X105.979 Y98.799
G1 F1800 X104.619 Y100.158 E27.66223
G0 F5400 X104.619 Y99.593
