;FLAVOR:Marlin
;TIME:2322
;Filament used: 0.914025m
;Layer height: 0.1
;MINX:86
;MINY:86
;MINZ:0.1
;MAXX:114
;MAXY:114
;MAXZ:20
;Generated with Cura_SteamEngine 4.8.0
M140 S60
M105
M190 S60
M104 S248
M105
M109 S248
M82 ;absolute extrusion mode
G21 ;metric values
 G90 ;absolute positioning
 M82 ;set extruder to absolute mode
 M107 ;start with the fan off
 G28 X0 Y0 ;move X/Y to min endstops
 G28 Z0 ;move Z to min endstops
 G1 Z15.0 F120 ;move the platform down 15mm
 G92 E0 ;zero the extruded length
 G1 F200 E6 ;extrude 6 mm of feed stock
 G92 E0 ;zero the extruded length again
 G1 F120 
 ;Put printing message on LCD screen
 M117 Printing...
G92 E0
G92 E0
G1 F1800 E-1
;LAYER_COUNT:200
;LAYER:0
M106 S255
G0 F5400 X87.004 Y87.369 Z0.1
;TYPE:SKIRT
G1 F1800 E0.41575
G1 F2400 X87.406 Y86.972 E0.42515
G1 X87.86 Y86.635 E0.43455
G1 X88.357 Y86.366 E0.44395
G1 X88.887 Y86.169 E0.45335
G1 X89.44 Y86.05 E0.46276
G1 X90.218 Y86.002 E0.47572
G1 X90.33 Y86 E0.47758
G1 X109.35 Y86 E0.79389
G1 X110.048 Y86.01 E0.8055
G1 X110.612 Y86.058 E0.81491
G1 X111.162 Y86.185 E0.8243
G1 X111.69 Y86.389 E0.83371
G1 X112.184 Y86.664 E0.84311
G1 X112.633 Y87.007 E0.85251
G1 X113.03 Y87.409 E0.86191
G1 X113.367 Y87.864 E0.87132
G1 X113.635 Y88.361 E0.88071
G1 X113.831 Y88.891 E0.89011
G1 X113.951 Y89.444 E0.89952
G1 X113.998 Y90.218 E0.91241
G1 X114 Y90.33 E0.91428
G1 X114 Y99.35 E1.06428
G1 X113.99 Y100.053 E1.07597
G1 X113.942 Y100.616 E1.08537
G1 X113.815 Y101.167 E1.09477
G1 X113.611 Y101.695 E1.10419
G1 X113.336 Y102.188 E1.11357
G1 X112.993 Y102.638 E1.12298
G1 X112.328 Y103.277 E1.13832
G1 X110.896 Y104.54 E1.17007
G1 X108.938 Y106.367 E1.21461
G1 X107.003 Y108.283 E1.25989
G1 X105.104 Y110.268 E1.30558
G1 X103.524 Y112.01 E1.34469
G1 X102.974 Y112.631 E1.35848
G1 X102.571 Y113.027 E1.36788
G1 X102.115 Y113.362 E1.37729
G1 X101.617 Y113.629 E1.38669
G1 X101.086 Y113.823 E1.39609
G1 X100.533 Y113.941 E1.40549
G1 X100.062 Y113.978 E1.41335
G1 X98.953 Y114 E1.4318
G1 X90.65 Y114 E1.56988
G1 X89.952 Y113.99 E1.58148
G1 X89.388 Y113.942 E1.5909
G1 X88.838 Y113.815 E1.60028
G1 X88.31 Y113.611 E1.6097
G1 X87.816 Y113.336 E1.6191
G1 X87.367 Y112.993 E1.6285
G1 X86.97 Y112.591 E1.63789
G1 X86.633 Y112.136 E1.64731
G1 X86.365 Y111.639 E1.6567
G1 X86.169 Y111.109 E1.6661
G1 X86.049 Y110.556 E1.67551
G1 X86.001 Y109.766 E1.68867
G1 X86 Y90.62 E2.00707
G1 X86.009 Y89.955 E2.01813
G1 X86.057 Y89.392 E2.02752
G1 X86.183 Y88.841 E2.03692
G1 X86.386 Y88.313 E2.04633
G1 X86.662 Y87.819 E2.05574
G1 X87.004 Y87.369 E2.06514
G0 F5400 X87.397 Y87.531
G1 F2400 X87.794 Y87.171 E2.07405
G1 X88.241 Y86.873 E2.08299
G1 X88.726 Y86.645 E2.0919
G1 X89.24 Y86.492 E2.10082
G1 X89.908 Y86.41 E2.11201
G1 X90.33 Y86.4 E2.11903
G1 X109.345 Y86.4 E2.43525
G1 X110.043 Y86.41 E2.44686
G1 X110.577 Y86.458 E2.45578
G1 X111.098 Y86.584 E2.46469
G1 X111.595 Y86.787 E2.47362
G1 X112.056 Y87.061 E2.48254
G1 X112.471 Y87.4 E2.49145
G1 X112.831 Y87.798 E2.50037
G1 X113.128 Y88.244 E2.50928
G1 X113.356 Y88.73 E2.51821
G1 X113.508 Y89.244 E2.52713
G1 X113.59 Y89.909 E2.53827
G1 X113.6 Y90.33 E2.54527
G1 X113.6 Y99.344 E2.69518
G1 X113.59 Y100.047 E2.70687
G1 X113.542 Y100.581 E2.71578
G1 X113.416 Y101.103 E2.72471
G1 X113.213 Y101.599 E2.73363
G1 X112.939 Y102.06 E2.74254
G1 X112.412 Y102.659 E2.75581
G1 X112.017 Y103.018 E2.76469
G1 X110.642 Y104.231 E2.79518
G1 X108.649 Y106.09 E2.84051
G1 X106.715 Y108.004 E2.88576
G1 X104.838 Y109.967 E2.93092
G1 X103.228 Y111.742 E2.97078
G1 X102.675 Y112.366 E2.98464
G1 X102.29 Y112.74 E2.99357
G1 X101.855 Y113.052 E3.00247
G1 X101.377 Y113.297 E3.0114
G1 X100.869 Y113.468 E3.02032
G1 X100.341 Y113.561 E3.02923
G1 X100.054 Y113.578 E3.03401
G1 X98.953 Y113.6 E3.05233
G1 X90.655 Y113.6 E3.19032
G1 X89.957 Y113.59 E3.20193
G1 X89.423 Y113.542 E3.21085
G1 X88.902 Y113.416 E3.21976
G1 X88.405 Y113.213 E3.22869
G1 X87.944 Y112.939 E3.23761
G1 X87.529 Y112.6 E3.24652
G1 X87.169 Y112.202 E3.25544
G1 X86.872 Y111.756 E3.26436
G1 X86.644 Y111.27 E3.27328
G1 X86.492 Y110.756 E3.2822
G1 X86.41 Y110.088 E3.29339
G1 X86.4 Y109.658 E3.30054
G1 X86.4 Y90.625 E3.61706
G1 X86.409 Y89.96 E3.62812
G1 X86.457 Y89.426 E3.63704
G1 X86.583 Y88.905 E3.64595
G1 X86.785 Y88.408 E3.65487
G1 X87.058 Y87.947 E3.66378
G1 X87.397 Y87.531 E3.67271
G0 F5400 X87.454 Y88.082
G1 F2400 X87.789 Y87.704 E3.68111
G1 X88.18 Y87.383 E3.68952
G1 X88.617 Y87.128 E3.69793
G1 X89.088 Y86.944 E3.70634
G1 X89.582 Y86.838 E3.71475
G1 X90.24 Y86.801 E3.72571
G1 X109.339 Y86.8 E4.04332
G1 X110.037 Y86.81 E4.05493
G1 X110.54 Y86.857 E4.06333
G1 X111.03 Y86.983 E4.07175
G1 X111.494 Y87.185 E4.08016
G1 X111.92 Y87.457 E4.08857
G1 X112.298 Y87.792 E4.09697
G1 X112.618 Y88.183 E4.10537
G1 X112.873 Y88.62 E4.11379
G1 X113.056 Y89.091 E4.12219
G1 X113.163 Y89.585 E4.13059
G1 X113.199 Y90.24 E4.1415
G1 X113.2 Y99.339 E4.29282
G1 X113.19 Y100.042 E4.30451
G1 X113.143 Y100.545 E4.31291
G1 X113.017 Y101.035 E4.32133
G1 X112.815 Y101.498 E4.32973
G1 X112.544 Y101.925 E4.33814
G1 X112.143 Y102.363 E4.34801
G1 X111.753 Y102.718 E4.35678
G1 X110.351 Y103.955 E4.38788
G1 X108.395 Y105.779 E4.43235
G1 X106.428 Y107.727 E4.47839
G1 X104.517 Y109.724 E4.52436
G1 X102.957 Y111.445 E4.56299
G1 X102.376 Y112.101 E4.57756
G1 X102.011 Y112.451 E4.58597
G1 X101.597 Y112.741 E4.59438
G1 X101.142 Y112.961 E4.60278
G1 X100.658 Y113.106 E4.61118
G1 X100.045 Y113.178 E4.62145
G1 X98.953 Y113.2 E4.63961
G1 X90.661 Y113.2 E4.77751
G1 X89.963 Y113.19 E4.78912
G1 X89.46 Y113.143 E4.79752
G1 X88.97 Y113.017 E4.80593
G1 X88.506 Y112.815 E4.81435
G1 X88.08 Y112.543 E4.82275
G1 X87.702 Y112.208 E4.83115
G1 X87.382 Y111.817 E4.83955
G1 X87.127 Y111.38 E4.84797
G1 X86.944 Y110.909 E4.85637
G1 X86.837 Y110.415 E4.86478
G1 X86.801 Y109.745 E4.87594
G1 X86.8 Y90.631 E5.1938
G1 X86.809 Y89.966 E5.20486
G1 X86.856 Y89.462 E5.21328
G1 X86.982 Y88.973 E5.22168
G1 X87.183 Y88.509 E5.23009
G1 X87.454 Y88.082 E5.2385
G1 F1800 E4.2385
;MESH:Body1.stl
G0 F5400 X89.335 Y90.614
G0 X90.614 Y90.614
G0 X99.33 Y99.33
G0 X99.4 Y99.4
;TYPE:WALL-INNER
G1 F1800 E5.65425
G1 X99.4 Y109.4 E5.82055
G1 X90.6 Y109.4 E5.9669
G1 X90.6 Y90.6 E6.27954
G1 X109.4 Y90.6 E6.59219
G1 X109.4 Y99.4 E6.73853
G1 X99.4 Y99.4 E6.90483
G0 F5400 X99.8 Y99.8
;TYPE:WALL-OUTER
G1 F1800 X99.8 Y109.8 E7.07113
G1 X90.2 Y109.8 E7.23078
G1 X90.2 Y90.2 E7.55673
G1 X109.8 Y90.2 E7.88268
G1 X109.8 Y99.8 E8.04233
G1 X99.8 Y99.8 E8.20863
G0 F5400 X99.8 Y100
G0 X99.36 Y100
G0 X99.3 Y100
G0 X99.01 Y99.01
;TYPE:SKIN
G1 F1800 X99.01 Y109.01 E8.37493
G1 X90.99 Y109.01 E8.5083
G1 X90.99 Y90.99 E8.80798
G1 X109.01 Y90.99 E9.10765
G1 X109.01 Y99.01 E9.24102
G1 X99.01 Y99.01 E9.40732
G0 F5400 X108.829 Y91.293
G1 F1800 X108.706 Y91.17 E9.41022
G0 F5400 X108.14 Y91.17
G1 F1800 X108.829 Y91.858 E9.42641
G0 F5400 X108.829 Y92.424
G1 F1800 X107.574 Y91.17 E9.45591
G0 F5400 X107.009 Y91.17
G1 F1800 X108.829 Y92.99 E9.49872
G0 F5400 X108.829 Y93.555
G1 F1800 X106.443 Y91.17 E9.55482
G0 F5400 X105.877 Y91.17
G1 F1800 X108.829 Y94.121 E9.62423
G0 F5400 X108.829 Y94.687
G1 F1800 X105.312 Y91.17 E9.70695
G0 F5400 X104.746 Y91.17
G1 F1800 X108.829 Y95.252 E9.80296
G0 F5400 X108.829 Y95.818
G1 F1800 X104.18 Y91.17 E9.91229
G0 F5400 X103.615 Y91.17
G1 F1800 X108.829 Y96.384 E10.03491
G0 F5400 X108.829 Y96.949
G1 F1800 X103.049 Y91.17 E10.17084
G0 F5400 X102.483 Y91.17
G1 F1800 X108.829 Y97.515 E10.32008
G0 F5400 X108.829 Y98.081
G1 F1800 X101.918 Y91.17 E10.48261
G0 F5400 X101.352 Y91.17
G1 F1800 X108.829 Y98.647 E10.65846
G0 F5400 X108.446 Y98.829
G1 F1800 X100.786 Y91.17 E10.8386
G0 F5400 X100.221 Y91.17
G1 F1800 X107.88 Y98.829 E11.01873
G0 F5400 X107.314 Y98.829
G1 F1800 X99.655 Y91.17 E11.19885
G0 F5400 X99.089 Y91.17
G1 F1800 X106.749 Y98.829 E11.37899
G0 F5400 X106.183 Y98.829
G1 F1800 X98.524 Y91.17 E11.55912
G0 F5400 X97.958 Y91.17
G1 F1800 X105.617 Y98.829 E11.73925
G0 F5400 X105.052 Y98.829
G1 F1800 X97.392 Y91.17 E11.91939
G0 F5400 X96.826 Y91.17
G1 F1800 X104.486 Y98.829 E12.09953
G0 F5400 X103.92 Y98.829
G1 F1800 X96.261 Y91.17 E12.27966
G0 F5400 X95.695 Y91.17
G1 F1800 X103.354 Y98.829 E12.45979
G0 F5400 X102.789 Y98.829
G1 F1800 X95.129 Y91.17 E12.63993
G0 F5400 X94.564 Y91.17
G1 F1800 X102.223 Y98.829 E12.82005
G0 F5400 X101.657 Y98.829
G1 F1800 X93.998 Y91.17 E13.00018
G0 F5400 X93.432 Y91.17
G1 F1800 X101.092 Y98.829 E13.18032
G0 F5400 X100.526 Y98.829
G1 F1800 X92.867 Y91.17 E13.36045
G0 F5400 X92.301 Y91.17
G1 F1800 X99.96 Y98.829 E13.54058
G0 F5400 X99.395 Y98.829
G1 F1800 X91.735 Y91.17 E13.72072
G0 F5400 X91.169 Y91.169
G1 F1800 X98.829 Y98.829 E13.90087
G0 F5400 X98.829 Y99.395
G1 F1800 X91.169 Y91.735 E14.08102
G0 F5400 X91.169 Y92.3
G1 F1800 X98.829 Y99.96 E14.26117
G0 F5400 X98.829 Y100.526
G1 F1800 X91.169 Y92.866 E14.44132
G0 F5400 X91.169 Y93.432
G1 F1800 X98.829 Y101.092 E14.62147
G0 F5400 X98.829 Y101.657
G1 F1800 X91.169 Y93.997 E14.80163
G0 F5400 X91.169 Y94.563
G1 F1800 X98.829 Y102.223 E14.98178
G0 F5400 X98.829 Y102.789
G1 F1800 X91.169 Y95.129 E15.16193
G0 F5400 X91.169 Y95.694
G1 F1800 X98.829 Y103.354 E15.34208
G0 F5400 X98.829 Y103.92
G1 F1800 X91.169 Y96.26 E15.52223
G0 F5400 X91.169 Y96.826
G1 F1800 X98.829 Y104.486 E15.70238
G0 F5400 X98.829 Y105.052
G1 F1800 X91.169 Y97.391 E15.88255
G0 F5400 X91.169 Y97.957
G1 F1800 X98.829 Y105.617 E16.0627
G0 F5400 X98.829 Y106.183
G1 F1800 X91.169 Y98.523 E16.24285
G0 F5400 X91.169 Y99.088
G1 F1800 X98.829 Y106.749 E16.42301
G0 F5400 X98.829 Y107.314
G1 F1800 X91.169 Y99.654 E16.60316
G0 F5400 X91.169 Y100.22
G1 F1800 X98.829 Y107.88 E16.78331
G0 F5400 X98.829 Y108.446
G1 F1800 X91.169 Y100.786 E16.96347
G0 F5400 X91.169 Y101.351
G1 F1800 X98.647 Y108.829 E17.13934
G0 F5400 X98.081 Y108.829
G1 F1800 X91.169 Y101.917 E17.3019
G0 F5400 X91.169 Y102.483
G1 F1800 X97.515 Y108.829 E17.45115
G0 F5400 X96.949 Y108.829
G1 F1800 X91.169 Y103.048 E17.58709
G0 F5400 X91.169 Y103.614
G1 F1800 X96.384 Y108.829 E17.70974
G0 F5400 X95.818 Y108.829
G1 F1800 X91.169 Y104.18 E17.81908
G0 F5400 X91.169 Y104.745
G1 F1800 X95.252 Y108.829 E17.91512
G0 F5400 X94.687 Y108.829
G1 F1800 X91.169 Y105.311 E17.99786
G0 F5400 X91.169 Y105.877
G1 F1800 X94.121 Y108.829 E18.06728
G0 F5400 X93.555 Y108.829
G1 F1800 X91.169 Y106.442 E18.12341
G0 F5400 X91.169 Y107.008
G1 F1800 X92.99 Y108.829 E18.16624
G0 F5400 X92.424 Y108.829
G1 F1800 X91.169 Y107.574 E18.19575
G0 F5400 X91.169 Y108.139
G1 F1800 X91.858 Y108.829 E18.21197
G0 F5400 X91.293 Y108.829
G1 F1800 X91.169 Y108.705 E18.21488
;MESH:NONMESH
G0 F600 X91.169 Y108.705 Z0.2
G0 F5400 X99.33 Y99.33
G0 X99.4 Y99.4
;TIME_ELAPSED:37.848804
;LAYER:1
;TYPE:WALL-INNER
;MESH:Body1.stl
G1 F1950 X99.4 Y109.4 E18.38118
G1 X90.6 Y109.4 E18.52753
G1 X90.6 Y90.6 E18.84017
G1 X109.4 Y90.6 E19.15282
G1 X109.4 Y99.4 E19.29916
G1 X99.4 Y99.4 E19.46547
G0 F6300 X99.8 Y99.8
;TYPE:WALL-OUTER
G1 F1650 X99.8 Y109.8 E19.63177
G1 X90.2 Y109.8 E19.79141
G1 X90.2 Y90.2 E20.11736
G1 X109.8 Y90.2 E20.44331
G1 X109.8 Y99.8 E20.60296
G1 X99.8 Y99.8 E20.76926
G0 F6300 X99.8 Y100
G0 X99.36 Y100
G0 X99.3 Y100
G0 X99.01 Y99.01
;TYPE:SKIN
G1 F1800 X99.01 Y109.01 E20.93556
G1 X90.99 Y109.01 E21.06894
G1 X90.99 Y90.99 E21.36861
G1 X109.01 Y90.99 E21.66828
G1 X109.01 Y99.01 E21.80166
G1 X99.01 Y99.01 E21.96796
G0 F6300 X108.211 Y98.829
G1 F1800 X108.829 Y98.211 E21.98249
G0 F6300 X108.829 Y97.645
G1 F1800 X107.645 Y98.829 E22.01034
G0 F6300 X107.08 Y98.829
G1 F1800 X108.829 Y97.08 E22.05147
G0 F6300 X108.829 Y96.514
G1 F1800 X106.514 Y98.829 E22.10592
G0 F6300 X105.948 Y98.829
G1 F1800 X108.829 Y95.948 E22.17367
G0 F6300 X108.829 Y95.383
G1 F1800 X105.382 Y98.829 E22.25473
G0 F6300 X104.817 Y98.829
G1 F1800 X108.829 Y94.817 E22.34909
G0 F6300 X108.829 Y94.251
G1 F1800 X104.251 Y98.829 E22.45675
G0 F6300 X103.685 Y98.829
G1 F1800 X108.829 Y93.685 E22.57773
G0 F6300 X108.829 Y93.12
G1 F1800 X103.12 Y98.829 E22.712
G0 F6300 X102.554 Y98.829
G1 F1800 X108.829 Y92.554 E22.85958
G0 F6300 X108.829 Y91.988
G1 F1800 X101.988 Y98.829 E23.02047
G0 F6300 X101.423 Y98.829
G1 F1800 X108.829 Y91.423 E23.19465
G0 F6300 X108.517 Y91.169
G1 F1800 X100.857 Y98.829 E23.3748
G0 F6300 X100.291 Y98.829
G1 F1800 X107.951 Y91.169 E23.55495
G0 F6300 X107.386 Y91.169
G1 F1800 X99.726 Y98.829 E23.7351
G0 F6300 X99.16 Y98.829
G1 F1800 X106.82 Y91.169 E23.91525
G0 F6300 X106.254 Y91.169
G1 F1800 X91.17 Y106.254 E24.27002
G0 F6300 X91.17 Y106.819
G1 F1800 X98.829 Y99.16 E24.45014
G0 F6300 X98.829 Y99.726
G1 F1800 X91.17 Y107.385 E24.63027
G0 F6300 X91.17 Y107.951
G1 F1800 X98.829 Y100.291 E24.81041
G0 F6300 X98.829 Y100.857
G1 F1800 X91.17 Y108.516 E24.99054
G0 F6300 X91.423 Y108.829
G1 F1800 X98.829 Y101.423 E25.16472
G0 F6300 X98.829 Y101.988
G1 F1800 X91.988 Y108.829 E25.32561
G0 F6300 X92.554 Y108.829
G1 F1800 X98.829 Y102.554 E25.47319
G0 F6300 X98.829 Y103.12
G1 F1800 X93.12 Y108.829 E25.60745
G0 F6300 X93.685 Y108.829
G1 F1800 X98.829 Y103.685 E25.72843
G0 F6300 X98.829 Y104.251
G1 F1800 X94.251 Y108.829 E25.8361
G0 F6300 X94.817 Y108.829
G1 F1800 X98.829 Y104.817 E25.93045
G0 F6300 X98.829 Y105.382
G1 F1800 X95.383 Y108.829 E26.01151
G0 F6300 X95.948 Y108.829
G1 F1800 X98.829 Y105.948 E26.07927
G0 F6300 X98.829 Y106.514
G1 F1800 X96.514 Y108.829 E26.13371
G0 F6300 X97.08 Y108.829
G1 F1800 X98.829 Y107.08 E26.17485
G0 F6300 X98.829 Y107.645
G1 F1800 X97.645 Y108.829 E26.20269
G0 F6300 X98.211 Y108.829
G1 F1800 X98.829 Y108.211 E26.21723
G1 X98.899 Y108.141
G0 F6300 X91.17 Y105.688
G1 F1800 X105.689 Y91.169 E26.55869
G0 F6300 X105.123 Y91.169
G1 F1800 X91.17 Y105.122 E26.88685
G0 F6300 X91.17 Y104.557
G1 F1800 X104.557 Y91.169 E27.2017
G0 F6300 X103.992 Y91.169
G1 F1800 X91.17 Y103.991 E27.50325
G0 F6300 X91.17 Y103.425
G1 F1800 X103.426 Y91.169 E27.79149
G0 F6300 X102.86 Y91.169
G1 F1800 X91.17 Y102.859 E28.06643
G0 F6300 X91.17 Y102.294
G1 F1800 X102.295 Y91.169 E28.32807
G0 F6300 X101.729 Y91.169
G1 F1800 X91.17 Y101.728 E28.5764
G0 F6300 X91.17 Y101.162
G1 F1800 X101.163 Y91.169 E28.81142
G0 F6300 X100.597 Y91.169
G1 F1800 X91.17 Y100.597 E29.03314
G0 F6300 X91.17 Y100.031
G1 F1800 X100.032 Y91.169 E29.24156
G0 F6300 X99.466 Y91.169
G1 F1800 X91.17 Y99.465 E29.43667
G0 F6300 X91.17 Y98.9
G1 F1800 X98.9 Y91.169 E29.61848
G0 F6300 X98.335 Y91.169
G1 F1800 X91.17 Y98.334 E29.78699
G0 F6300 X91.17 Y97.768
G1 F1800 X97.769 Y91.169 E29.94219
G0 F6300 X97.203 Y91.169
G1 F1800 X91.17 Y97.203 E30.08409
G0 F6300 X91.17 Y96.637
G1 F1800 X96.638 Y91.169 E30.21269
G0 F6300 X96.072 Y91.169
G1 F1800 X91.17 Y96.071 E30.32797
G0 F6300 X91.17 Y95.506
G1 F1800 X95.506 Y91.169 E30.42996
G0 F6300 X94.941 Y91.169
G1 F1800 X91.17 Y94.94 E30.51865
G0 F6300 X91.17 Y94.374
G1 F1800 X94.375 Y91.169 E30.59403
G0 F6300 X93.809 Y91.169
G1 F1800 X91.17 Y93.809 E30.6561
G0 F6300 X91.17 Y93.243
G1 F1800 X93.244 Y91.169 E30.70488
G0 F6300 X92.678 Y91.169
G1 F1800 X91.17 Y92.677 E30.74035
G0 F6300 X91.17 Y92.111
G1 F1800 X92.112 Y91.169 E30.7625
G0 F6300 X91.546 Y91.169
G1 F1800 X91.17 Y91.546 E30.77135
;MESH:NONMESH
G0 F600 X91.17 Y91.546 Z0.3
G0 F6300 X99.33 Y99.33
G0 X99.4 Y99.4
;TIME_ELAPSED:64.828883
;LAYER:2
;TYPE:WALL-INNER
;MESH:Body1.stl
G1 F2100 X99.4 Y109.4 E30.93766
G1 X90.6 Y109.4 E31.084
G1 X90.6 Y90.6 E31.39665
G1 X109.4 Y90.6 E31.70929
G1 X109.4 Y99.4 E31.85564
G1 X99.4 Y99.4 E32.02194
G0 F7200 X99.8 Y99.8
;TYPE:WALL-OUTER
G1 F1500 X99.8 Y109.8 E32.18824
G1 X90.2 Y109.8 E32.34789
G1 X90.2 Y90.2 E32.67383
G1 X109.8 Y90.2 E32.99978
G1 X109.8 Y99.8 E33.15943
G1 X99.8 Y99.8 E33.32573
G0 F7200 X99.8 Y100
G0 X99.36 Y100
G0 X99.3 Y100
G0 X99.01 Y99.01
;TYPE:SKIN
G1 F1800 X99.01 Y109.01 E33.49203
G1 X90.99 Y109.01 E33.62541
G1 X90.99 Y90.99 E33.92508
G1 X109.01 Y90.99 E34.22475
G1 X109.01 Y99.01 E34.35813
G1 X99.01 Y99.01 E34.52443
G0 F7200 X108.829 Y91.293
G1 F1800 X108.706 Y91.17 E34.52732
G0 F7200 X108.14 Y91.17
G1 F1800 X108.829 Y91.858 E34.54351
G0 F7200 X108.829 Y92.424
G1 F1800 X107.574 Y91.17 E34.57302
G0 F7200 X107.009 Y91.17
G1 F1800 X108.829 Y92.99 E34.61582
G0 F7200 X108.829 Y93.555
G1 F1800 X106.443 Y91.17 E34.67192
G0 F7200 X105.877 Y91.17
